X: 8568
T: Crock Of Gold, The
R: reel
M: 4/4
K: Gmajor
B2dB cAGE|~G3A GEDB,|DEGA BAGA|B2dB cAFA|
B2dB cAGE|GBAF GED2|g2fg egdB|DEGA BG~G2:|
ea~a2 bagb|agef gede|gedB GABd|egdB BA~A2|
ea~a2 bagb|agef gede|g2fg egdB|DEGA BG~G2:|

